;FLAVOR:Marlin
;TIME:16265
;Filament used: 2.67953m
;Layer height: 0.1
;MINX:85.978
;MINY:36.335
;MINZ:0.3
;MAXX:142.695
;MAXY:188.865
;MAXZ:22.3
;TARGET_MACHINE.NAME:Ultimaker Original+
;Generated with Cura_SteamEngine 5.10.0
M140 S60
M105
M190 S60
M104 S200
M105
M109 S200
G21 ;metric values
G90 ;absolute positioning
M82 ;set extruder to absolute mode
M107 ;start with the fan off
G28 X0 Y0 ;move X/Y to min endstops
G28 Z0 ;move Z to min endstops
G1 Z15.0 F9000 ;move the platform down 15mm
G92 E0 ;zero the extruded length
G1 F200 E6 ;extrude 6 mm of feed stock
G92 E0 ;zero the extruded length again
G1 Y50 F9000
;Put printing message on LCD screen
M117 Printing...
M82 ;absolute extrusion mode
G92 E0
G92 E0
G1 F1500 E-6.5
;LAYER_COUNT:221
;LAYER:0
M107
G0 F7200 X87.223 Y41.889 Z0.3
;TYPE:SKIRT
G1 F1500 E0
G1 F600 X88.014 Y40.531 E0.02956
G1 X89.755 Y38.686 E0.07728
G1 X91.291 Y37.71 E0.11151
G1 X93.688 Y36.551 E0.1616
G1 X96.485 Y36.335 E0.21437
G1 X133.455 Y36.429 E0.90979
G1 X134.947 Y36.662 E0.9382
G1 X136.998 Y37.513 E0.97997
G1 X138.181 Y38.221 E1.0059
G1 X139.605 Y39.307 E1.03959
G1 X141.225 Y41.362 E1.08881
G1 X142.07 Y43.283 E1.12829
G1 X142.695 Y45.296 E1.16794
G1 X142.671 Y166.918 E3.45572
G1 X142.576 Y167.838 E3.47311
G1 X141.931 Y170.488 E3.52442
G1 X141.384 Y171.81 E3.55133
G1 X140.775 Y172.936 E3.57541
G1 X139.984 Y174.098 E3.60185
G1 X138.383 Y175.85 E3.64649
G1 X137.104 Y176.891 E3.67751
G1 X136.207 Y177.473 E3.69763
G1 X134.696 Y178.241 E3.72951
G1 X132.38 Y179.018 E3.77546
G1 X131.694 Y179.152 E3.78861
G1 X129.609 Y179.344 E3.828
G1 X118.599 Y179.344 E4.0351
G1 X118.225 Y180.044 E4.05003
G1 X117.428 Y181.328 E4.07846
G1 X116.995 Y181.936 E4.0925
G1 X116.115 Y183.029 E4.11889
G1 X115.629 Y183.562 E4.13246
G1 X114.589 Y184.557 E4.15954
G1 X113.419 Y185.498 E4.18778
G1 X111.685 Y186.626 E4.22669
G1 X110.814 Y187.087 E4.24523
G1 X109.482 Y187.679 E4.27265
G1 X108.217 Y188.115 E4.29782
G1 X107.105 Y188.417 E4.31949
G1 X106.142 Y188.618 E4.338
G1 X104.726 Y188.793 E4.36483
G1 X103.636 Y188.86 E4.38538
G1 X102.967 Y188.865 E4.39796
G1 X101.323 Y188.77 E4.42894
G1 X100.445 Y188.655 E4.44559
G1 X99.385 Y188.443 E4.46593
G1 X97.848 Y188.017 E4.49593
G1 X96.767 Y187.631 E4.51752
G1 X95.841 Y187.223 E4.53656
G1 X94.594 Y186.569 E4.56304
G1 X93.643 Y185.983 E4.58406
G1 X92.493 Y185.14 E4.61088
G1 X91.583 Y184.366 E4.63335
G1 X90.744 Y183.551 E4.65535
G1 X89.909 Y182.613 E4.67897
G1 X89.296 Y181.823 E4.69778
G1 X88.377 Y180.435 E4.7291
G1 X87.988 Y179.737 E4.74413
G1 X87.173 Y177.994 E4.78032
G1 X86.913 Y177.285 E4.79453
G1 X86.43 Y175.591 E4.82766
G1 X86.191 Y174.361 E4.85123
G1 X86.062 Y173.391 E4.86964
G1 X85.978 Y172.091 E4.89414
G1 X86.051 Y45.593 E7.27364
G1 X86.268 Y44.125 E7.30156
G1 X87.223 Y41.889 E7.34729
G0 F7200 X87.569 Y42.09
G1 F600 X88.336 Y40.773 E7.37596
G1 X90.011 Y38.998 E7.42187
G1 X91.506 Y38.048 E7.45519
G1 X93.793 Y36.944 E7.50296
G1 X96.484 Y36.735 E7.55373
G1 X133.393 Y36.824 E8.24801
G1 X134.836 Y37.049 E8.27548
G1 X136.793 Y37.857 E8.31531
G1 X137.938 Y38.539 E8.34038
G1 X139.322 Y39.595 E8.37312
G1 X140.879 Y41.569 E8.42042
G1 X141.688 Y43.402 E8.4581
G1 X142.295 Y45.357 E8.49661
G1 X142.273 Y166.878 E10.78249
G1 X142.187 Y167.744 E10.79886
G1 X141.561 Y170.335 E10.849
G1 X141.014 Y171.657 E10.87591
G1 X140.444 Y172.711 E10.89845
G1 X139.653 Y173.873 E10.92489
G1 X138.13 Y175.54 E10.96737
G1 X136.886 Y176.555 E10.99757
G1 X135.989 Y177.137 E11.01768
G1 X134.568 Y177.862 E11.04769
G1 X132.303 Y178.625 E11.09265
G1 X131.617 Y178.759 E11.10579
G1 X129.609 Y178.944 E11.14373
G1 X118.359 Y178.944 E11.35535
G1 X117.872 Y179.855 E11.37478
G1 X117.102 Y181.096 E11.40225
G1 X116.669 Y181.704 E11.41629
G1 X115.819 Y182.759 E11.44177
G1 X115.333 Y183.292 E11.45534
G1 X114.338 Y184.245 E11.48126
G1 X113.168 Y185.186 E11.5095
G1 X111.498 Y186.272 E11.54697
G1 X110.627 Y186.733 E11.56551
G1 X109.32 Y187.313 E11.59241
G1 X108.112 Y187.729 E11.61644
G1 X107.023 Y188.025 E11.63767
G1 X106.06 Y188.226 E11.65617
G1 X104.677 Y188.396 E11.68239
G1 X103.633 Y188.46 E11.70206
G1 X102.964 Y188.465 E11.71464
G1 X101.375 Y188.373 E11.74459
G1 X100.497 Y188.258 E11.76124
G1 X99.464 Y188.051 E11.78106
G1 X97.983 Y187.64 E11.80997
G1 X96.902 Y187.254 E11.83156
G1 X96.003 Y186.857 E11.85005
G1 X94.803 Y186.228 E11.87553
G1 X93.879 Y185.66 E11.89594
G1 X92.752 Y184.835 E11.92221
G1 X91.862 Y184.079 E11.94418
G1 X91.023 Y183.264 E11.96618
G1 X90.208 Y182.347 E11.98925
G1 X89.63 Y181.602 E12.00699
G1 X88.711 Y180.214 E12.0383
G1 X88.338 Y179.543 E12.05275
G1 X87.549 Y177.856 E12.08778
G1 X87.289 Y177.147 E12.10198
G1 X86.823 Y175.515 E12.13391
G1 X86.588 Y174.308 E12.15704
G1 X86.459 Y173.338 E12.17545
G1 X86.378 Y172.091 E12.19895
G1 X86.447 Y45.652 E14.57734
G1 X86.657 Y44.234 E14.60431
G1 X87.569 Y42.09 E14.64813
G0 F7200 X87.915 Y42.291
G1 F600 X88.658 Y41.015 E14.67591
G1 X90.267 Y39.31 E14.72001
G1 X91.721 Y38.386 E14.75241
G1 X93.898 Y37.337 E14.79787
G1 X96.483 Y37.135 E14.84664
G1 X133.331 Y37.219 E15.53978
G1 X134.725 Y37.436 E15.56631
G1 X136.64 Y38.227 E15.60529
G1 X137.695 Y38.857 E15.6284
G1 X139.039 Y39.883 E15.66021
G1 X140.533 Y41.777 E15.70558
G1 X141.306 Y43.521 E15.74147
G1 X141.895 Y45.418 E15.77883
G1 X141.875 Y166.84 E18.06285
G1 X141.798 Y167.651 E18.07817
G1 X141.191 Y170.183 E18.12715
G1 X140.662 Y171.467 E18.15327
G1 X140.113 Y172.486 E18.17504
G1 X139.322 Y173.648 E18.20149
G1 X137.835 Y175.27 E18.24288
G1 X136.668 Y176.219 E18.27117
G1 X135.771 Y176.801 E18.29129
G1 X134.387 Y177.505 E18.32049
G1 X132.226 Y178.232 E18.36338
G1 X131.54 Y178.366 E18.37653
G1 X129.609 Y178.544 E18.41301
G1 X118.077 Y178.544 E18.62993
G1 X117.819 Y179.105 E18.64155
G1 X117.519 Y179.666 E18.65351
G1 X116.776 Y180.864 E18.68003
G1 X116.357 Y181.453 E18.69363
G1 X115.523 Y182.489 E18.71864
G1 X115.037 Y183.022 E18.73221
G1 X114.087 Y183.933 E18.75697
G1 X112.917 Y184.874 E18.78521
G1 X111.311 Y185.918 E18.82125
G1 X110.44 Y186.379 E18.83978
G1 X109.189 Y186.935 E18.86554
G1 X108.007 Y187.343 E18.88906
G1 X106.941 Y187.633 E18.90984
G1 X105.978 Y187.834 E18.92834
G1 X104.628 Y187.999 E18.95393
G1 X103.63 Y188.06 E18.97273
G1 X102.961 Y188.065 E18.98532
G1 X101.427 Y187.976 E19.01422
G1 X100.549 Y187.861 E19.03088
G1 X99.543 Y187.659 E19.05018
G1 X98.118 Y187.263 E19.078
G1 X97.037 Y186.877 E19.09959
G1 X96.165 Y186.491 E19.11753
G1 X95.012 Y185.887 E19.14201
G1 X94.115 Y185.337 E19.16181
G1 X93.011 Y184.53 E19.18753
G1 X92.141 Y183.792 E19.20899
G1 X91.302 Y182.977 E19.23099
G1 X90.524 Y182.101 E19.25303
G1 X89.964 Y181.381 E19.27019
G1 X89.045 Y179.993 E19.3015
G1 X88.688 Y179.349 E19.31535
G1 X87.925 Y177.718 E19.34922
G1 X87.665 Y177.009 E19.36343
G1 X87.216 Y175.438 E19.39416
G1 X86.985 Y174.255 E19.41684
G1 X86.856 Y173.285 E19.43524
G1 X86.778 Y172.091 E19.45775
G1 X86.843 Y45.711 E21.83503
G1 X87.046 Y44.341 E21.86108
G1 X87.915 Y42.291 E21.90297
G0 F7200 X88.261 Y42.492
G1 F600 X88.98 Y41.257 E21.92985
G1 X90.523 Y39.622 E21.97214
G1 X91.936 Y38.724 E22.00363
G1 X94.002 Y37.73 E22.04675
G1 X96.482 Y37.535 E22.09355
G1 X133.269 Y37.614 E22.78553
G1 X134.616 Y37.824 E22.81118
G1 X136.436 Y38.571 E22.84819
G1 X137.452 Y39.175 E22.87042
G1 X138.756 Y40.171 E22.90128
G1 X140.187 Y41.985 E22.94475
G1 X140.94 Y43.683 E22.97969
G1 X141.495 Y45.478 E23.01503
G1 X141.477 Y166.804 E25.29724
G1 X141.409 Y167.558 E25.31148
G1 X140.802 Y170.09 E25.36046
G1 X140.309 Y171.278 E25.38465
G1 X139.782 Y172.261 E25.40563
G1 X138.991 Y173.423 E25.43207
G1 X137.582 Y174.96 E25.47129
G1 X136.45 Y175.883 E25.49877
G1 X135.553 Y176.465 E25.51888
G1 X134.206 Y177.148 E25.54729
G1 X132.149 Y177.839 E25.58811
G1 X131.463 Y177.973 E25.60126
G1 X129.609 Y178.144 E25.63628
G1 X117.821 Y178.144 E25.85802
G1 X117.466 Y178.916 E25.874
G1 X117.166 Y179.477 E25.88597
G1 X116.45 Y180.632 E25.91153
G1 X116.031 Y181.221 E25.92513
G1 X115.227 Y182.219 E25.94924
G1 X114.741 Y182.752 E25.9628
G1 X113.836 Y183.621 E25.98641
G1 X112.666 Y184.562 E26.01465
G1 X111.124 Y185.565 E26.04925
G1 X110.278 Y186.013 E26.06726
G1 X109.027 Y186.569 E26.09301
G1 X107.902 Y186.957 E26.11539
G1 X106.859 Y187.241 E26.13573
G1 X105.896 Y187.442 E26.15423
G1 X104.603 Y187.6 E26.17874
G1 X103.627 Y187.66 E26.19713
G1 X102.958 Y187.665 E26.20971
G1 X101.479 Y187.579 E26.23758
G1 X100.601 Y187.464 E26.25424
G1 X99.622 Y187.267 E26.27302
G1 X98.253 Y186.886 E26.29975
G1 X97.172 Y186.5 E26.32135
G1 X96.327 Y186.125 E26.33874
G1 X95.221 Y185.546 E26.36222
G1 X94.351 Y185.014 E26.3814
G1 X93.27 Y184.225 E26.40658
G1 X92.42 Y183.505 E26.42753
G1 X91.581 Y182.69 E26.44953
G1 X90.84 Y181.855 E26.47053
G1 X90.28 Y181.135 E26.48769
G1 X89.395 Y179.799 E26.51783
G1 X89.038 Y179.155 E26.53168
G1 X88.301 Y177.58 E26.56439
G1 X88.041 Y176.871 E26.5786
G1 X87.609 Y175.361 E26.60814
G1 X87.382 Y174.202 E26.63036
G1 X87.253 Y173.232 E26.64877
G1 X87.178 Y172.091 E26.67028
G1 X87.239 Y45.77 E29.04644
G1 X87.435 Y44.448 E29.07158
G1 X88.261 Y42.492 E29.11152
G0 F7200 X88.607 Y42.693
G1 F600 X89.302 Y41.499 E29.13751
G1 X90.779 Y39.934 E29.17799
G1 X92.151 Y39.062 E29.20857
G1 X94.108 Y38.123 E29.2494
G1 X96.481 Y37.935 E29.29418
G1 X133.207 Y38.009 E29.98501
G1 X134.509 Y38.212 E30.0098
G1 X136.232 Y38.915 E30.04481
G1 X137.209 Y39.493 E30.06616
G1 X138.473 Y40.459 E30.09608
G1 X139.843 Y42.194 E30.13767
G1 X140.558 Y43.801 E30.17075
G1 X141.095 Y45.538 E30.20495
G1 X141.078 Y166.771 E32.48541
G1 X141.02 Y167.465 E32.49851
G1 X140.432 Y169.937 E32.54631
G1 X139.956 Y171.089 E32.56976
G1 X139.429 Y172.072 E32.59074
G1 X138.696 Y173.153 E32.61531
G1 X137.287 Y174.69 E32.65453
G1 X136.232 Y175.548 E32.68011
G1 X135.372 Y176.108 E32.69941
G1 X134.025 Y176.791 E32.72782
G1 X132.072 Y177.446 E32.76657
G1 X131.386 Y177.58 E32.77972
G1 X129.609 Y177.744 E32.81329
G1 X117.565 Y177.744 E33.03984
G1 X117.113 Y178.727 E33.06019
G1 X116.813 Y179.288 E33.07216
G1 X116.124 Y180.4 E33.09677
G1 X115.705 Y180.989 E33.11036
G1 X114.931 Y181.949 E33.13356
G1 X114.445 Y182.482 E33.14713
G1 X113.585 Y183.309 E33.16957
G1 X112.415 Y184.25 E33.19781
G1 X110.937 Y185.212 E33.23099
G1 X110.116 Y185.647 E33.24846
G1 X108.865 Y186.203 E33.27421
G1 X107.797 Y186.571 E33.29546
G1 X106.777 Y186.849 E33.31535
G1 X105.814 Y187.05 E33.33386
G1 X104.578 Y187.201 E33.35728
G1 X103.624 Y187.26 E33.37526
G1 X102.955 Y187.265 E33.38784
G1 X101.531 Y187.182 E33.41467
G1 X100.653 Y187.067 E33.43133
G1 X99.701 Y186.875 E33.4496
G1 X98.388 Y186.509 E33.47524
G1 X97.307 Y186.123 E33.49683
G1 X96.512 Y185.77 E33.51319
G1 X95.429 Y185.204 E33.53618
G1 X94.587 Y184.691 E33.55473
G1 X93.529 Y183.92 E33.57935
G1 X92.679 Y183.2 E33.6003
G1 X91.88 Y182.425 E33.62124
G1 X91.156 Y181.609 E33.64176
G1 X90.596 Y180.889 E33.65892
G1 X89.745 Y179.605 E33.6879
G1 X89.388 Y178.961 E33.70175
G1 X88.677 Y177.442 E33.7333
G1 X88.417 Y176.733 E33.7475
G1 X88.002 Y175.284 E33.77585
G1 X87.775 Y174.125 E33.79807
G1 X87.652 Y173.206 E33.81551
G1 X87.578 Y172.091 E33.83653
G1 X87.635 Y45.829 E36.21159
G1 X87.824 Y44.556 E36.2358
G1 X88.607 Y42.693 E36.27381
G0 F7200 X88.953 Y42.894
G1 F600 X89.624 Y41.741 E36.2989
G1 X91.035 Y40.246 E36.33757
G1 X92.366 Y39.4 E36.36724
G1 X94.214 Y38.516 E36.40577
G1 X96.48 Y38.335 E36.44854
G1 X133.145 Y38.404 E37.13823
G1 X134.4 Y38.6 E37.16212
G1 X136.029 Y39.26 E37.19518
G1 X136.966 Y39.811 E37.21563
G1 X138.19 Y40.747 E37.24461
G1 X139.498 Y42.402 E37.28429
G1 X140.192 Y43.963 E37.31643
G1 X140.695 Y45.598 E37.34861
G1 X140.679 Y166.738 E39.62732
G1 X140.621 Y167.432 E39.64042
G1 X140.062 Y169.785 E39.68591
G1 X139.603 Y170.9 E39.70859
G1 X139.076 Y171.883 E39.72957
G1 X138.365 Y172.928 E39.75335
G1 X137.034 Y174.38 E39.7904
G1 X136.013 Y175.213 E39.81518
G1 X135.191 Y175.751 E39.83366
G1 X133.844 Y176.434 E39.86207
G1 X131.995 Y177.053 E39.89875
G1 X131.309 Y177.187 E39.9119
G1 X129.609 Y177.344 E39.94401
G1 X117.309 Y177.344 E40.17538
G1 X116.76 Y178.538 E40.2001
G1 X116.46 Y179.099 E40.21207
G1 X115.798 Y180.168 E40.23572
G1 X115.393 Y180.738 E40.24888
G1 X114.635 Y181.679 E40.2716
G1 X114.149 Y182.212 E40.28517
G1 X113.334 Y182.997 E40.30646
G1 X112.164 Y183.938 E40.3347
G1 X110.749 Y184.859 E40.36646
G1 X109.954 Y185.281 E40.38339
G1 X108.703 Y185.837 E40.40914
G1 X107.692 Y186.185 E40.42925
G1 X106.695 Y186.457 E40.44869
G1 X105.732 Y186.658 E40.4672
G1 X104.553 Y186.802 E40.48954
G1 X103.621 Y186.86 E40.50711
G1 X102.952 Y186.865 E40.51969
G1 X101.583 Y186.785 E40.54549
G1 X100.705 Y186.67 E40.56214
G1 X99.78 Y186.483 E40.5799
G1 X98.522 Y186.132 E40.60446
G1 X97.469 Y185.757 E40.62549
G1 X96.674 Y185.404 E40.64185
G1 X95.637 Y184.862 E40.66386
G1 X94.795 Y184.349 E40.68241
G1 X93.787 Y183.615 E40.70586
G1 X92.957 Y182.913 E40.72631
G1 X92.179 Y182.16 E40.74668
G1 X91.472 Y181.363 E40.76672
G1 X90.912 Y180.643 E40.78388
G1 X90.095 Y179.411 E40.81168
G1 X89.738 Y178.767 E40.82554
G1 X89.053 Y177.304 E40.85592
G1 X88.793 Y176.595 E40.87013
G1 X88.394 Y175.207 E40.89729
G1 X88.171 Y174.072 E40.91905
G1 X88.051 Y173.179 E40.936
G1 X87.978 Y172.091 E40.95651
G1 X88.031 Y45.888 E43.33046
G1 X88.213 Y44.663 E43.35376
G1 X88.953 Y42.894 E43.38983
G0 F7200 X89.299 Y43.095
G1 F600 X89.946 Y41.983 E43.41403
G1 X91.291 Y40.558 E43.45089
G1 X92.581 Y39.738 E43.47964
G1 X94.319 Y38.909 E43.51586
G1 X96.479 Y38.735 E43.55662
G1 X133.083 Y38.799 E44.24517
G1 X134.293 Y38.988 E44.2682
G1 X135.826 Y39.605 E44.29929
G1 X136.763 Y40.156 E44.31973
G1 X137.905 Y41.032 E44.34681
G1 X139.153 Y42.61 E44.38465
G1 X139.826 Y44.125 E44.41584
G1 X140.295 Y45.656 E44.44596
G1 X140.28 Y166.705 E46.72296
G1 X140.222 Y167.399 E46.73606
G1 X139.692 Y169.633 E46.77924
G1 X139.25 Y170.711 E46.80116
G1 X138.723 Y171.694 E46.82214
G1 X138.07 Y172.658 E46.84404
G1 X136.739 Y174.11 E46.88109
G1 X135.793 Y174.879 E46.90403
G1 X135.009 Y175.395 E46.92168
G1 X133.716 Y176.055 E46.94899
G1 X131.918 Y176.66 E46.98467
G1 X131.232 Y176.794 E46.99782
G1 X129.609 Y176.944 E47.02848
G1 X117.052 Y176.944 E47.26469
G1 X116.407 Y178.349 E47.29377
G1 X116.107 Y178.91 E47.30573
G1 X115.472 Y179.937 E47.32845
G1 X115.082 Y180.487 E47.34113
G1 X114.339 Y181.409 E47.3634
G1 X113.853 Y181.942 E47.37697
G1 X113.083 Y182.685 E47.3971
G1 X111.913 Y183.626 E47.42534
G1 X110.561 Y184.506 E47.45569
G1 X109.766 Y184.928 E47.47262
G1 X108.573 Y185.459 E47.49718
G1 X107.587 Y185.799 E47.5168
G1 X106.613 Y186.065 E47.53579
G1 X105.65 Y186.266 E47.5543
G1 X104.528 Y186.403 E47.57556
G1 X103.618 Y186.46 E47.59271
G1 X102.949 Y186.465 E47.6053
G1 X101.635 Y186.388 E47.63006
G1 X100.757 Y186.273 E47.64671
G1 X99.86 Y186.091 E47.66393
G1 X98.656 Y185.755 E47.68744
G1 X97.631 Y185.391 E47.7079
G1 X96.836 Y185.038 E47.72426
G1 X95.845 Y184.52 E47.7453
G1 X95.03 Y184.025 E47.76324
G1 X94.045 Y183.309 E47.78614
G1 X93.235 Y182.625 E47.80608
G1 X92.478 Y181.894 E47.82588
G1 X91.788 Y181.117 E47.84543
G1 X91.228 Y180.397 E47.86258
G1 X90.445 Y179.217 E47.88922
G1 X90.088 Y178.573 E47.90307
G1 X89.429 Y177.166 E47.9323
G1 X89.169 Y176.457 E47.9465
G1 X88.779 Y175.097 E47.97312
G1 X88.567 Y174.019 E47.99378
G1 X88.45 Y173.152 E48.01024
G1 X88.378 Y172.091 E48.03024
G1 X88.427 Y45.947 E50.40308
G1 X88.602 Y44.769 E50.42549
G1 X89.299 Y43.095 E50.45959
G0 F7200 X89.645 Y43.296
G1 F600 X90.268 Y42.225 E50.4829
G1 X91.547 Y40.87 E50.51795
G1 X92.796 Y40.076 E50.54579
G1 X94.424 Y39.302 E50.5797
G1 X96.478 Y39.135 E50.61846
G1 X133.021 Y39.194 E51.30586
G1 X134.184 Y39.376 E51.328
G1 X135.623 Y39.95 E51.35714
G1 X136.56 Y40.501 E51.37759
G1 X137.622 Y41.319 E51.40281
G1 X138.808 Y42.818 E51.43876
G1 X139.46 Y44.287 E51.46899
G1 X139.895 Y45.716 E51.49709
G1 X139.881 Y166.672 E53.77234
G1 X139.823 Y167.366 E53.78544
G1 X139.322 Y169.482 E53.82635
G1 X138.897 Y170.522 E53.84748
G1 X138.37 Y171.505 E53.86846
G1 X137.739 Y172.433 E53.88957
G1 X136.486 Y173.8 E53.92445
G1 X135.572 Y174.545 E53.94663
G1 X134.826 Y175.039 E53.96346
G1 X133.588 Y175.676 E53.98965
G1 X131.841 Y176.267 E54.02434
G1 X131.155 Y176.401 E54.03749
G1 X129.609 Y176.544 E54.0667
